dist/svg/static/hotline-small.svg

<svg xmlns="http://www.w3.org/2000/svg" width="24" height="24" viewBox="0 0 24 24"><g fill="none" stroke="currentColor" stroke-miterlimit="10"><path d="M3.5 8.5h-.3c-1.5 0-2.7 1.9-2.7 4s1.2 4 2.7 4h.3M20.5 7.5h-2.1c-.7 0-.9.5-.9 1.1v7.7c0 .7.2 1.2.9 1.2h2.1V6.2c0-3.3-2.2-5.7-5.5-5.7H9C5.7.5 3.5 3 3.5 6.2v10.5c0 3.3 2 5.8 5.3 5.8h.7"/><path d="M9.5 21.5h6v2h-6zM20.5 8.5h.4c1.5 0 2.6 1.9 2.6 4s-1.1 4-2.6 4h-.4M3.5 7.5h2.1c.7 0 .9.5.9 1.1v7.7c0 .7-.2 1.2-.9 1.2H3.538"/></g></svg>

<?xml version="1.0" encoding="UTF-8" standalone="no"?>
<svg width="24px" height="24px" viewBox="0 0 24 24" version="1.1" xmlns="http://www.w3.org/2000/svg" xmlns:xlink="http://www.w3.org/1999/xlink">
    <!-- Generator: sketchtool 46.2 (44496) - http://www.bohemiancoding.com/sketch -->
    <title>hotline-small</title>
    <desc>Created with sketchtool.</desc>
    <defs></defs>
    <g id="icons-published" stroke="none" stroke-width="1" fill="none" fill-rule="evenodd">
        <g id="briefing" transform="translate(-2660.000000, -794.000000)"></g>
        <g id="hotline-small" stroke="#000000">
            <path d="M3.5,8.5 L3.2,8.5 C1.7,8.5 0.5,10.4 0.5,12.5 C0.5,14.6 1.7,16.5 3.2,16.5 L3.5,16.5 M20.5,7.5 L18.4,7.5 C17.7,7.5 17.5,8 17.5,8.6 L17.5,16.3 C17.5,17 17.7,17.5 18.4,17.5 L20.5,17.5 L20.5,6.2 C20.5,2.9 18.3,0.5 15,0.5 L9,0.5 C5.7,0.5 3.5,3 3.5,6.2 L3.5,16.7 C3.5,20 5.5,22.5 8.8,22.5 L9.5,22.5" id="Shape"></path>
            <polygon id="Shape" points="9.5 21.5 15.5 21.5 15.5 23.5 9.5 23.5"></polygon>
            <path d="M3.5,7.5 L5.6,7.5 C6.3,7.5 6.5,8 6.5,8.6 L6.5,16.3 C6.5,17 6.3,17.5 5.6,17.5 L3.5,17.5" id="Path"></path>
            <path d="M20.5,8.5 L20.9,8.5 C22.4,8.5 23.5,10.4 23.5,12.5 C23.5,14.6 22.4,16.5 20.9,16.5 L20.5,16.5" id="Path"></path>
        </g>
    </g>
</svg>
